symbols/fr/TIV-distance-90-sign.svg

<?xml version="1.0" encoding="UTF-8" standalone="no"?>
<svg
   width="16"
   height="16"
   viewBox="0 0 16 16"
   version="1.1"
   id="svg914"
   sodipodi:docname="TIV-distance-90-sign.svg"
   inkscape:version="1.2.2 (b0a8486541, 2022-12-01)"
   xmlns:inkscape="http://www.inkscape.org/namespaces/inkscape"
   xmlns:sodipodi="http://sodipodi.sourceforge.net/DTD/sodipodi-0.dtd"
   xmlns="http://www.w3.org/2000/svg"
   xmlns:svg="http://www.w3.org/2000/svg">
  <defs
     id="defs918" />
  <sodipodi:namedview
     id="namedview916"
     pagecolor="#ffffff"
     bordercolor="#666666"
     borderopacity="1.0"
     inkscape:showpageshadow="2"
     inkscape:pageopacity="0.0"
     inkscape:pagecheckerboard="0"
     inkscape:deskcolor="#d1d1d1"
     showgrid="false"
     inkscape:zoom="18.592801"
     inkscape:cx="10.138332"
     inkscape:cy="15.086484"
     inkscape:window-width="1920"
     inkscape:window-height="1008"
     inkscape:window-x="0"
     inkscape:window-y="0"
     inkscape:window-maximized="1"
     inkscape:current-layer="svg914" />
  <path
     fill-rule="nonzero"
     fill="#ffffff"
     fill-opacity="1"
     d="M 0,0 H 16 V 16 H 0 Z m 0,0"
     id="path890" />
  <path
     fill-rule="nonzero"
     fill="#000000"
     fill-opacity="1"
     d="M 0.160156,0.160156 H 15.839844 V 15.839844 H 0.160156 Z m 0,0"
     id="path892" />
  <path
     fill-rule="nonzero"
     fill="#ffffff"
     fill-opacity="1"
     d="M 1.121094,1.121094 H 14.878906 V 14.878906 H 1.121094 Z m 0,0"
     id="path894" />
  <path
     fill-rule="nonzero"
     fill="#000000"
     fill-opacity="1"
     d="m 3.238281,6.984375 c 0,-0.6875 0.199219,-1.25 0.597657,-1.675781 C 4.234375,4.878906 4.75,4.664062 5.390625,4.664062 c 0.980469,0 1.652344,0.433594 2.019531,1.304688 0.207032,0.492188 0.308594,1.140625 0.308594,1.941406 0,0.78125 -0.097656,1.433594 -0.296875,1.953125 -0.378906,0.992188 -1.078125,1.492188 -2.089844,1.492188 -0.484375,0 -0.917969,-0.144531 -1.304687,-0.429688 C 3.644531,10.636719 3.421875,10.222656 3.367188,9.671875 h 1.261718 c 0.03125,0.191406 0.109375,0.34375 0.238282,0.464844 C 5,10.253906 5.171875,10.3125 5.390625,10.3125 c 0.417969,0 0.710937,-0.230469 0.878906,-0.691406 C 6.363281,9.363281 6.417969,8.992188 6.441406,8.503906 6.328125,8.648438 6.203125,8.757812 6.074219,8.835938 c -0.238281,0.144531 -0.53125,0.214843 -0.875,0.214843 -0.515625,0 -0.96875,-0.179687 -1.367188,-0.53125 C 3.433594,8.164062 3.238281,7.652344 3.238281,6.984375 Z M 5.472656,8.019531 C 5.648438,8.019531 5.8125,7.96875 5.96875,7.867188 6.253906,7.683594 6.398438,7.363281 6.398438,6.910156 6.398438,6.546875 6.3125,6.257812 6.144531,6.042969 5.972656,5.828125 5.738281,5.722656 5.441406,5.722656 c -0.214844,0 -0.402344,0.0625 -0.554687,0.183594 -0.242188,0.1875 -0.363281,0.511719 -0.363281,0.964844 0,0.382812 0.078124,0.667968 0.230468,0.859375 0.15625,0.191406 0.398438,0.289062 0.71875,0.289062 z M 9.609375,8.003906 c 0,0.742188 0.0625,1.308594 0.183594,1.703125 0.121093,0.390625 0.371093,0.589844 0.746093,0.589844 0.378907,0 0.625,-0.199219 0.742188,-0.589844 0.117188,-0.394531 0.175781,-0.960937 0.175781,-1.703125 0,-0.777344 -0.05859,-1.351562 -0.175781,-1.726562 C 11.164062,5.90625 10.917969,5.71875 10.539062,5.71875 c -0.375,0 -0.625,0.1875 -0.746093,0.558594 -0.121094,0.375 -0.183594,0.949218 -0.183594,1.726562 z m 0.929687,-3.332031 c 0.820313,0 1.398438,0.289063 1.726563,0.867187 0.332031,0.578126 0.496094,1.402344 0.496094,2.464844 0,1.066406 -0.164063,1.886719 -0.496094,2.460938 -0.328125,0.574218 -0.90625,0.863281 -1.726563,0.863281 -0.820312,0 -1.398437,-0.289063 -1.726562,-0.863281 C 8.480469,9.890625 8.316406,9.070312 8.316406,8.003906 8.316406,6.941406 8.480469,6.117188 8.8125,5.539062 9.140625,4.960938 9.71875,4.671875 10.539062,4.671875 Z M 2.964844,4.152344"
     id="path912" />
</svg>

<?xml version="1.0" encoding="UTF-8"?>
<svg xmlns="http://www.w3.org/2000/svg" xmlns:xlink="http://www.w3.org/1999/xlink" width="16" height="16" viewBox="0 0 16 16">
<rect x="-1.6" y="-1.6" width="19.2" height="19.2" fill="rgb(100%, 100%, 100%)" fill-opacity="1"/>
<path fill-rule="nonzero" fill="rgb(0%, 0%, 0%)" fill-opacity="1" d="M 0.160156 0.160156 L 15.839844 0.160156 L 15.839844 15.839844 L 0.160156 15.839844 Z M 0.160156 0.160156 "/>
<path fill-rule="nonzero" fill="rgb(100%, 100%, 100%)" fill-opacity="1" d="M 1.121094 1.121094 L 14.878906 1.121094 L 14.878906 14.878906 L 1.121094 14.878906 Z M 1.121094 1.121094 "/>
<path fill-rule="nonzero" fill="rgb(0%, 0%, 0%)" fill-opacity="1" d="M 3.238281 6.984375 C 3.238281 6.296875 3.4375 5.734375 3.835938 5.308594 C 4.234375 4.878906 4.75 4.664062 5.390625 4.664062 C 6.371094 4.664062 7.042969 5.097656 7.410156 5.96875 C 7.617188 6.460938 7.71875 7.109375 7.71875 7.910156 C 7.71875 8.691406 7.621094 9.34375 7.421875 9.863281 C 7.042969 10.855469 6.34375 11.355469 5.332031 11.355469 C 4.847656 11.355469 4.414062 11.210938 4.027344 10.925781 C 3.644531 10.636719 3.421875 10.222656 3.367188 9.671875 L 4.628906 9.671875 C 4.660156 9.863281 4.738281 10.015625 4.867188 10.136719 C 5 10.253906 5.171875 10.3125 5.390625 10.3125 C 5.808594 10.3125 6.101562 10.082031 6.269531 9.621094 C 6.363281 9.363281 6.417969 8.992188 6.441406 8.503906 C 6.328125 8.648438 6.203125 8.757812 6.074219 8.835938 C 5.835938 8.980469 5.542969 9.050781 5.199219 9.050781 C 4.683594 9.050781 4.230469 8.871094 3.832031 8.519531 C 3.433594 8.164062 3.238281 7.652344 3.238281 6.984375 Z M 5.472656 8.019531 C 5.648438 8.019531 5.8125 7.96875 5.96875 7.867188 C 6.253906 7.683594 6.398438 7.363281 6.398438 6.910156 C 6.398438 6.546875 6.3125 6.257812 6.144531 6.042969 C 5.972656 5.828125 5.738281 5.722656 5.441406 5.722656 C 5.226562 5.722656 5.039062 5.785156 4.886719 5.90625 C 4.644531 6.09375 4.523438 6.417969 4.523438 6.871094 C 4.523438 7.253906 4.601562 7.539062 4.753906 7.730469 C 4.910156 7.921875 5.152344 8.019531 5.472656 8.019531 Z M 9.609375 8.003906 C 9.609375 8.746094 9.671875 9.3125 9.792969 9.707031 C 9.914062 10.097656 10.164062 10.296875 10.539062 10.296875 C 10.917969 10.296875 11.164062 10.097656 11.28125 9.707031 C 11.398438 9.3125 11.457031 8.746094 11.457031 8.003906 C 11.457031 7.226562 11.398438 6.652344 11.28125 6.277344 C 11.164062 5.90625 10.917969 5.71875 10.539062 5.71875 C 10.164062 5.71875 9.914062 5.90625 9.792969 6.277344 C 9.671875 6.652344 9.609375 7.226562 9.609375 8.003906 Z M 10.539062 4.671875 C 11.359375 4.671875 11.9375 4.960938 12.265625 5.539062 C 12.597656 6.117188 12.761719 6.941406 12.761719 8.003906 C 12.761719 9.070312 12.597656 9.890625 12.265625 10.464844 C 11.9375 11.039062 11.359375 11.328125 10.539062 11.328125 C 9.71875 11.328125 9.140625 11.039062 8.8125 10.464844 C 8.480469 9.890625 8.316406 9.070312 8.316406 8.003906 C 8.316406 6.941406 8.480469 6.117188 8.8125 5.539062 C 9.140625 4.960938 9.71875 4.671875 10.539062 4.671875 Z M 2.964844 4.152344 "/>
</svg>
